img/call.svg

<?xml version="1.0" encoding="UTF-8"?> <svg xmlns="http://www.w3.org/2000/svg" width="65" height="65" viewBox="0 0 65 65" fill="none"><circle cx="32.5" cy="32.5" r="32.5" fill="url(#paint0_linear_167_64)"></circle><circle cx="32.4407" cy="32.4485" r="26.4553" fill="url(#paint1_linear_167_64)"></circle><path d="M34.3422 58.8717L24.5303 33.5242L26.1656 32.7065V29.4359L27.8009 21.2593L58.872 34.3418L58.6517 37.2054C57.8249 47.9537 49.6439 56.6857 38.9721 58.2102L34.3422 58.8717Z" fill="url(#paint2_linear_167_64)"></path><path d="M41.6094 32.6748C41.6094 30.2014 40.7458 28.1035 39.0185 26.381C37.2913 24.6586 35.1871 23.7969 32.706 23.7961V21.2593C34.2959 21.2593 35.7853 21.5607 37.1743 22.1636C38.5632 22.7666 39.7715 23.5804 40.7992 24.6053C41.8269 25.6302 42.6431 26.8351 43.2477 28.2202C43.8523 29.6053 44.1541 31.0902 44.1533 32.6748H41.6094ZM36.5218 32.6748C36.5218 31.6178 36.1508 30.7194 35.4089 29.9795C34.6669 29.2396 33.766 28.8696 32.706 28.8696V26.3328C34.4655 26.3328 35.9655 26.9514 37.2061 28.1885C38.4466 29.4256 39.0665 30.921 39.0656 32.6748H36.5218ZM42.8178 44.1538C40.1679 44.1538 37.5499 43.5779 34.9637 42.4262C32.3775 41.2745 30.0244 39.6412 27.9045 37.5264C25.7847 35.4116 24.1473 33.0651 22.9924 30.4868C21.8375 27.9086 21.2596 25.2978 21.2588 22.6545C21.2588 22.274 21.386 21.9569 21.6404 21.7032C21.8947 21.4495 22.2127 21.3227 22.5943 21.3227H27.7456C28.0423 21.3227 28.3073 21.4233 28.5405 21.6246C28.7737 21.8258 28.9115 22.0634 28.9539 22.3374L29.7806 26.7768C29.823 27.115 29.8124 27.4004 29.7488 27.633C29.6852 27.8655 29.5686 28.0663 29.399 28.2354L26.3147 31.343C26.7386 32.1252 27.2419 32.8807 27.8244 33.6096C28.407 34.3385 29.0484 35.0416 29.7488 35.719C30.406 36.3743 31.0949 36.9823 31.8157 37.5429C32.5364 38.1035 33.2996 38.616 34.1051 39.0802L37.0941 36.0995C37.2849 35.9092 37.5342 35.7667 37.842 35.672C38.1498 35.5773 38.4517 35.5507 38.7476 35.5921L43.1357 36.48C43.4325 36.5645 43.6763 36.718 43.8671 36.9404C44.0579 37.1628 44.1533 37.411 44.1533 37.685V42.822C44.1533 43.2025 44.0261 43.5196 43.7717 43.7732C43.5173 44.0269 43.1993 44.1538 42.8178 44.1538Z" fill="white"></path><defs><linearGradient id="paint0_linear_167_64" x1="22.8977" y1="2.95455" x2="46.5341" y2="59.0909" gradientUnits="userSpaceOnUse"><stop stop-color="#26AF01"></stop><stop offset="1" stop-color="#104900"></stop></linearGradient><linearGradient id="paint1_linear_167_64" x1="14.4443" y1="9.38881" x2="48.3888" y2="59.2221" gradientUnits="userSpaceOnUse"><stop stop-color="#104900"></stop><stop offset="1" stop-color="#26AF01"></stop></linearGradient><linearGradient id="paint2_linear_167_64" x1="40.8835" y1="39.2478" x2="55.6013" y2="56.4187" gradientUnits="userSpaceOnUse"><stop stop-color="#114F01" stop-opacity="0.6"></stop><stop offset="1" stop-color="#02A60C" stop-opacity="0.21"></stop></linearGradient></defs></svg>

<svg xmlns="http://www.w3.org/2000/svg" width="65" height="65" fill="none"><circle cx="32.5" cy="32.5" r="32.5" fill="url(#paint0_linear_167_64)"/><circle cx="32.441" cy="32.449" r="26.455" fill="url(#paint1_linear_167_64)"/><path d="M34.342 58.872L24.53 33.524l1.636-.818v-3.27l1.635-8.177 31.071 13.083-.22 2.863a23 23 0 01-19.68 21.005l-4.63.662z" fill="url(#paint2_linear_167_64)"/><path d="M41.61 32.675c0-2.474-.864-4.571-2.591-6.294-1.728-1.722-3.832-2.584-6.313-2.585V21.26c1.59 0 3.08.302 4.468.905a11.643 11.643 0 013.625 2.441 11.607 11.607 0 012.449 3.615c.604 1.385.906 2.87.905 4.455H41.61zm-5.088 0c0-1.057-.371-1.956-1.113-2.695-.742-.74-1.643-1.11-2.703-1.11v-2.537c1.76 0 3.26.618 4.5 1.856 1.24 1.237 1.86 2.732 1.86 4.486h-2.544zm6.296 11.479c-2.65 0-5.268-.576-7.854-1.728-2.587-1.151-4.94-2.785-7.06-4.9-2.12-2.114-3.757-4.46-4.912-7.04-1.155-2.577-1.732-5.188-1.733-7.832 0-.38.127-.697.381-.95.255-.255.573-.381.954-.381h5.152c.296 0 .561.1.795.302.233.2.37.438.413.712l.827 4.44c.042.338.031.623-.032.856-.064.233-.18.433-.35.602l-3.084 3.108c.424.782.927 1.538 1.51 2.267a22.344 22.344 0 001.924 2.109 22.418 22.418 0 002.067 1.824c.72.56 1.484 1.073 2.29 1.537l2.988-2.98c.19-.19.44-.333.748-.428.308-.095.61-.121.906-.08l4.388.888c.296.085.54.238.731.46.19.223.286.471.286.745v5.137c0 .38-.127.698-.381.951-.255.254-.573.38-.954.38z" fill="#fff"/><defs><linearGradient id="paint0_linear_167_64" x1="22.898" y1="2.955" x2="46.534" y2="59.091" gradientUnits="userSpaceOnUse"><stop stop-color="#26AF01"/><stop offset="1" stop-color="#104900"/></linearGradient><linearGradient id="paint1_linear_167_64" x1="14.444" y1="9.389" x2="48.389" y2="59.222" gradientUnits="userSpaceOnUse"><stop stop-color="#104900"/><stop offset="1" stop-color="#26AF01"/></linearGradient><linearGradient id="paint2_linear_167_64" x1="40.883" y1="39.248" x2="55.601" y2="56.419" gradientUnits="userSpaceOnUse"><stop stop-color="#114F01" stop-opacity=".6"/><stop offset="1" stop-color="#02A60C" stop-opacity=".21"/></linearGradient></defs></svg>
